X:105
T:Woodford Ship. LIT.105, The
M:6/8
Q:3/8=100
L:1/8
B:Wm. Litten MS, 1802
Z:Village Music Project 2017 Anne Wride
K:F
GGG BAG | GGG BAG | GBd dcB | ABG ^FED |
GGG BAG | GGG BAG | GBd dcB | AG^F G3 !fine! :|
|: ADA ABc | cBA B2G | dBG g2f | _efd cBA |
d2d fed | ddd fed | dfa agf | ed^c d3 |
efg ggg | gfe d2c | cde eee | edc c2 =B |
Acc ccc | =Bdd ddd | def gdc | BAG d_e/d/c/d/ !D.C.!:|

